example.svg

<svg height="500" version="1.1" width="500" xmlns="http://www.w3.org/2000/svg"><desc>Created with Snap</desc><defs/><path d="M433.73661273361057,182.99493658684702Q499,213.2461665876026 499,331.2164800420802Q499.00000000000006,449.18679349655787 384.9514099699921,474.0933967482789Q270.9028199399841,499 250.63797089647323,499Q230.37312185296233,499 215.79940652511885,441.82956103979006Q201.22569119727535,384.65912207958013 284.8494583322482,268.7014143328358Q368.47322546722114,152.74370658609143 433.73661273361057,182.99493658684702" class="bezier-shape" style="stroke-width: 0;"/><path d="M384.9514099699921,474.0933967482789Q499.00000000000006,449.18679349655787 499,474.0933967482789Q499,499 384.951409969992,499Q270.9028199399841,499 384.9514099699921,474.0933967482789" class="bezier-shape" style="stroke-width: 0;"/><path d="M284.8494583322482,268.7014143328358Q201.22569119727535,384.65912207958013 166.49312364939158,248.408612977487Q131.76055610150783,112.15810387539385 191.47768612121138,105.27015134057513Q251.19481614091492,98.38219880575639 309.834020804068,125.56295269592391Q368.47322546722114,152.74370658609143 284.8494583322482,268.7014143328358" class="bezier-shape" style="stroke-width: 0;"/><path d="M191.47768612121138,105.27015134057513Q131.76055610150783,112.15810387539385 121.76774068604941,72.95782920976777Q111.77492527059098,33.75755454414167 181.48487070575294,66.06987667494903Q251.19481614091492,98.38219880575639 191.47768612121138,105.27015134057513" class="bezier-shape" style="stroke-width: 0;"/><path d="M460.4367851960318,74.24760374621286Q499,69.79960711489271 499,141.52288685124765Q499,213.2461665876026 433.73661273361057,182.99493658684702Q368.47322546722114,152.74370658609143 395.1733979296424,115.71965348181223Q421.87357039206364,78.69560037753303 460.4367851960318,74.24760374621286" class="bezier-shape" style="stroke-width: 0;"/><path d="M395.1733979296424,115.71965348181223Q368.47322546722114,152.74370658609143 309.834020804068,125.56295269592391Q251.19481614091492,98.38219880575639 336.5341932664893,88.53889959164471Q421.87357039206364,78.69560037753303 395.1733979296424,115.71965348181223" class="bezier-shape" style="stroke-width: 0;"/><path d="M450.24953042263985,39.34780018876649Q478.62549045321606,-4.263256414560601e-14 488.81274522660806,-2.1316282072803006e-14Q499,0 499,34.899803557446354Q499,69.79960711489271 460.4367851960318,74.24760374621286Q421.87357039206364,78.69560037753303 450.24953042263985,39.34780018876649" class="bezier-shape" style="stroke-width: 0;"/><path d="M107.47223843594136,16.87877727207082Q103.16955160129174,-2.842170943040401e-14 290.8975210272539,-3.552713678800501e-14Q478.62549045321606,-4.263256414560601e-14 450.24953042263985,39.34780018876649Q421.87357039206364,78.69560037753303 336.5341932664893,88.53889959164471Q251.19481614091492,98.38219880575639 181.48487070575294,66.06987667494903Q111.77492527059098,33.75755454414167 107.47223843594136,16.87877727207082" class="bezier-shape" style="stroke-width: 0;"/><path d="M159.9968020832009,441.82956103979006Q201.22569119727535,384.65912207958013 215.79940652511885,441.82956103979006Q230.37312185296233,499 174.57051741104436,499Q118.76791296912643,498.99999999999994 159.9968020832009,441.82956103979006" class="bezier-shape" style="stroke-width: 0;"/><path d="M65.88027805075392,119.75693235299363Q131.76055610150783,112.15810387539385 166.49312364939158,248.408612977487Q201.22569119727535,384.65912207958013 159.9968020832009,441.82956103979006Q118.76791296912643,498.99999999999994 59.383956484563214,499Q0,499 0,313.1778804152967Q0,127.35576083059343 65.88027805075392,119.75693235299363" class="bezier-shape" style="stroke-width: 0;"/><path d="M0,63.67788041529671Q0,0 19.473532436001847,-7.105427357601002e-15Q38.94706487200369,-1.4210854715202004e-14 75.36099507129734,16.878777272070828Q111.77492527059098,33.75755454414167 121.76774068604941,72.95782920976777Q131.76055610150783,112.15810387539385 65.88027805075392,119.75693235299363Q0,127.35576083059343 0,63.67788041529671" class="bezier-shape" style="stroke-width: 0;"/><path d="M75.36099507129734,16.878777272070828Q38.94706487200369,-1.4210854715202004e-14 71.05830823664772,-2.1316282072803006e-14Q103.16955160129174,-2.842170943040401e-14 107.47223843594136,16.87877727207082Q111.77492527059098,33.75755454414167 75.36099507129734,16.878777272070828" class="bezier-shape" style="stroke-width: 0;"/></svg>

<?xml version="1.0" encoding="utf-8"?>
<!-- Generator: Adobe Illustrator 26.1.0, SVG Export Plug-In . SVG Version: 6.00 Build 0)  -->
<svg version="1.1" id="Layer_1" xmlns="http://www.w3.org/2000/svg" xmlns:xlink="http://www.w3.org/1999/xlink" x="0px" y="0px"
	 viewBox="0 0 500 500" style="enable-background:new 0 0 500 500;" xml:space="preserve">
<style type="text/css">
	.st0{fill:#F0F0F0;}
</style>
<desc>Created with Snap</desc>
<path class="st0" d="M433.7,183c43.5,20.2,65.3,69.6,65.3,148.2s-38,126.3-114,142.9c-76,16.6-120.8,24.9-134.3,24.9
	c-13.5,0-25.1-19.1-34.8-57.2s13.3-95.8,69.1-173.1S390.2,162.8,433.7,183"/>
<path class="st0" d="M385,474.1c76-16.6,114-16.6,114,0c0,16.6-38,24.9-114,24.9S308.9,490.7,385,474.1"/>
<path class="st0" d="M284.8,268.7c-55.7,77.3-95.2,70.5-118.4-20.3s-14.8-138.5,25-143.1c39.8-4.6,79.3,2.2,118.4,20.3
	S340.6,191.4,284.8,268.7"/>
<path class="st0" d="M191.5,105.3c-39.8,4.6-63-6.2-69.7-32.3s13.2-28.4,59.7-6.9S231.3,100.7,191.5,105.3"/>
<path class="st0" d="M460.4,74.2c25.7-3,38.6,19.5,38.6,67.3s-21.8,61.6-65.3,41.5s-56.4-42.6-38.6-67.3S434.7,77.2,460.4,74.2"/>
<path class="st0" d="M395.2,115.7c-17.8,24.7-46.2,28-85.3,9.8s-30.2-30.5,26.7-37C393.4,82,413,91,395.2,115.7"/>
<path class="st0" d="M450.2,39.3C469.2,13.1,482,0,488.8,0S499,11.6,499,34.9s-12.9,36.4-38.6,39.3S431.3,65.6,450.2,39.3"/>
<path class="st0" d="M107.5,16.9C104.6,5.6,165.7,0,290.9,0s178.3,13.1,159.4,39.3S393.4,82,336.5,88.5
	c-56.9,6.6-108.6-0.9-155-22.5S110.3,28.1,107.5,16.9"/>
<path class="st0" d="M160,441.8c27.5-38.1,46.1-38.1,55.8,0s-4,57.2-41.2,57.2S132.5,479.9,160,441.8"/>
<path class="st0" d="M65.9,119.8c43.9-5.1,77.5,37.8,100.6,128.7s21,155.3-6.5,193.4S99,499,59.4,499S0,437.1,0,313.2
	S22,124.8,65.9,119.8"/>
<path class="st0" d="M0,63.7C0,21.2,6.5,0,19.5,0s31.6,5.6,55.9,16.9s39.7,29.9,46.4,56.1s-12,41.7-55.9,46.8
	C22,124.8,0,106.1,0,63.7"/>
<path class="st0" d="M75.4,16.9C51.1,5.6,49.7,0,71.1,0s33.5,5.6,36.4,16.9C110.3,28.1,99.6,28.1,75.4,16.9"/>
</svg>
